**harmony	**harte	**kern	**silbe	**rhyme	**timestamp	**phrase	**leadinstrument
*M4/4	*M4/4	*ICvox	*	*	*	*	*
*	*	*VRlead	*	*	*	*	*
*	*	*Hstimme	*	*	*	*	*
*A:	*A:	*A:	*	*	*	*	*
*	*	*M4/4	*	*	*	*	*
*	*	*clefF4	*	*	*	*	*
1r;	1r	r;	.	.	0	.	r
=1	=1	=1	=1	=1	=1	=1	=1
*>Letter>A	*>Letter>A	*>Letter>A	*>Letter>A	*>Letter>A	*>Letter>A	*>Letter>A	*>Letter>A
*>Label>Intro	*>Label>Intro	*>Label>Intro	*>Label>Intro	*>Label>Intro	*>Label>Intro	*>Label>Intro	*>Label>Intro
1AM	A:maj/5	1r	.	.	0.372	newline	synthesizer
=2	=2	=2	=2	=2	=2	=2	=2
1AM	A:maj/5	1r	.	.	2.452	.	synthesizer
=3	=3	=3	=3	=3	=3	=3	=3
2DM	D:maj/3	1r	.	.	4.532	.	synthesizer
2AM	A:maj/5	.	.	.	5.573	.	synthesizer
=4	=4	=4	=4	=4	=4	=4	=4
1EM	E:maj	1r	.	.	6.613	.	synthesizer
=5	=5	=5	=5	=5	=5	=5	=5
4EM	E:sus4/2	1r	.	.	8.693	newline	synthesizer
2.EM	E:maj	.	.	.	9.209	.	synthesizer
=6	=6	=6	=6	=6	=6	=6	=6
4EM	E:sus4/2	1r	.	.	10.756	.	synthesizer
2.EM	E:maj	.	.	.	11.271	.	synthesizer
=7	=7	=7	=7	=7	=7	=7	=7
2AM	A:maj/5	1r	.	.	12.818	.	synthesizer
2AM	A:maj/3	.	.	.	13.849	.	synthesizer
=8	=8	=8	=8	=8	=8	=8	=8
1DM	D:maj	2r	.	.	14.88	.	synthesizer
.	.	4r	.	.	.	.	.
.	.	8r	.	.	.	.	.
.	.	16E	i	.	.	.	.
.	.	16E	was	.	.	.	.
=9	=9	=9	=9	=9	=9	=9	=9
*>Letter>A	*>Letter>A	*>Letter>A	*>Letter>A	*>Letter>A	*>Letter>A	*>Letter>A	*>Letter>A
*>Label>Verse	*>Label>Verse	*>Label>Verse	*>Label>Verse	*>Label>Verse	*>Label>Verse	*>Label>Verse	*>Label>Verse
1AM	A:maj/5	8B	eight	.	16.942	newline	voice
.	.	4c#	years	.	.	.	.
.	.	[8c#	old	.	.	.	.
.	.	8c#]	_	.	.	.	.
.	.	4r	.	.	.	.	.
.	.	8E	and	.	.	.	.
=10	=10	=10	=10	=10	=10	=10	=10
1AM	A:maj/5	8B	run-	.	19.011	.	voice
.	.	4c#	-ning	.	.	.	.
.	.	[8c#	with	.	.	.	.
.	.	8c#]	_	.	.	.	.
.	.	4r	.	.	.	.	.
.	.	8c#	a	.	.	.	.
=11	=11	=11	=11	=11	=11	=11	=11
2DM	D:maj/3	2d	dime	.	21.079	.	voice
2AM	A:maj/5	8c#	in	.	22.113	.	voice
.	.	4c#	my	.	.	.	.
.	.	8B	_	.	.	.	.
=12	=12	=12	=12	=12	=12	=12	=12
1EM	E:maj	2B	hand	A	23.148	.	voice
.	.	4r	.	.	.	.	.
.	.	16r	.	.	.	.	.
.	.	16E	in	.	.	.	.
.	.	16E	to	.	.	.	.
.	.	16E	the	.	.	.	.
=13	=13	=13	=13	=13	=13	=13	=13
4EM	E:sus4/2	8A	bus	.	25.216	newline	voice
.	.	4B	stop	.	.	.	.
2.EM	E:maj	.	.	.	25.73	.	voice
.	.	8B	to	.	.	.	.
.	.	4B	pick	.	.	.	.
.	.	4r	.	.	.	.	.
=14	=14	=14	=14	=14	=14	=14	=14
4EM	E:sus4/2	8A	up	.	27.273	.	voice
.	.	4B	a	.	.	.	.
2.EM	E:maj	.	.	.	27.788	.	voice
.	.	[8B	pa-	.	.	.	.
.	.	8B]	_	.	.	.	.
.	.	8B	-per	.	.	.	.
.	.	8r	.	.	.	.	.
.	.	8B	for	.	.	.	.
=15	=15	=15	=15	=15	=15	=15	=15
2AM	A:maj/5	2c#	my	.	29.331	.	voice
2AM	A:maj/3	8B	old	.	30.359	.	voice
.	.	4.A	_	.	.	.	.
=16	=16	=16	=16	=16	=16	=16	=16
1DM	D:maj	8A	man	A	31.388	.	voice
.	.	4.F#	_	.	.	.	.
.	.	4r	.	.	.	.	.
.	.	8r	.	.	.	.	.
.	.	8E	I'd	.	.	.	.
=17	=17	=17	=17	=17	=17	=17	=17
1AM	A:maj/5	8B	sit	.	33.446	newline	voice
.	.	8c#	on	.	.	.	.
.	.	8c#	his	.	.	.	.
.	.	[8c#	lap	.	.	.	.
.	.	8c#]	_	.	.	.	.
.	.	4r	.	.	.	.	.
.	.	16E	in	.	.	.	.
.	.	16E	that	.	.	.	.
=18	=18	=18	=18	=18	=18	=18	=18
1AM	A:maj/5	8B	big	.	35.503	.	voice
.	.	4c#	old	.	.	.	.
.	.	8c#	Bu-	.	.	.	.
.	.	8c#	-ick	.	.	.	.
.	.	4r	.	.	.	.	.
.	.	[8d	steer	.	.	.	.
=19	=19	=19	=19	=19	=19	=19	=19
2DM	D:maj/3	4d]	_	.	37.56	.	voice
.	.	8d	as	.	.	.	.
.	.	8d	we	.	.	.	.
2AM	A:maj/5	4c#	drove	.	38.588	.	voice
.	.	4B	through	.	.	.	.
=20	=20	=20	=20	=20	=20	=20	=20
1EM	E:maj	2B	town	B	39.617	.	voice
.	.	4r	.	.	.	.	.
.	.	8r	.	.	.	.	.
.	.	8E	He'd	.	.	.	.
=21	=21	=21	=21	=21	=21	=21	=21
4EM	E:sus4/2	8A	tou-	.	41.674	newline	voice
.	.	8B	-sle	.	.	.	.
2.EM	E:maj	8B	my	.	42.194	.	voice
.	.	[8B	hair	.	.	.	.
.	.	8B]	_	.	.	.	.
.	.	4r	.	.	.	.	.
.	.	8E	and	.	.	.	.
=22	=22	=22	=22	=22	=22	=22	=22
4EM	E:sus4/2	8A	say	.	43.754	.	voice
.	.	4B	\\\"Son	.	.	.	.
2.EM	E:maj	.	.	.	44.274	.	voice
.	.	[8B	take	.	.	.	.
.	.	4B]	_	.	.	.	.
.	.	8r	.	.	.	.	.
.	.	8B	a	.	.	.	.
=23	=23	=23	=23	=23	=23	=23	=23
2AM	A:maj/5	2c#	good	.	45.835	.	voice
2AM	A:maj/3	8B	look	.	46.875	.	voice
.	.	4.A	a-	.	.	.	.
=24	=24	=24	=24	=24	=24	=24	=24
1DM	D:maj	8A	-round	B	47.915	.	voice
.	.	4.F#	_	.	.	.	.
.	.	4r	.	.	.	.	.
.	.	8r	.	.	.	.	.
.	.	16AA	this	.	.	.	.
.	.	16AA	is	.	.	.	.
=25	=25	=25	=25	=25	=25	=25	=25
*>Letter>A	*>Letter>A	*>Letter>A	*>Letter>A	*>Letter>A	*>Letter>A	*>Letter>A	*>Letter>A
*>Label>Chorus	*>Label>Chorus	*>Label>Chorus	*>Label>Chorus	*>Label>Chorus	*>Label>Chorus	*>Label>Chorus	*>Label>Chorus
1AM	A:maj/5	8C#	your	.	49.995	newline	voice
.	.	4E	home-	.	.	.	.
.	.	[8E	-town	B	.	.	.
.	.	2E]	_	.	.	.	.
=26	=26	=26	=26	=26	=26	=26	=26
1AM	A:maj/5	2r	.	.	52.052	.	voice
.	.	4r	.	.	.	.	.
.	.	8r	.	.	.	.	.
.	.	16c#	this	.	.	.	.
.	.	16c#	is	.	.	.	.
=27	=27	=27	=27	=27	=27	=27	=27
2DM	D:maj/3	2d	your	.	54.109	.	voice
2AM	A:maj/5	8c#	home-	.	55.138	.	voice
.	.	4.B	_	.	.	.	.
=28	=28	=28	=28	=28	=28	=28	=28
1EM	E:maj	2B	-town	B	56.166	.	voice
.	.	4r	.	.	.	.	.
.	.	8r	.	.	.	.	.
.	.	16E	this	.	.	.	.
.	.	16E	is	.	.	.	.
=29	=29	=29	=29	=29	=29	=29	=29
4EM	E:sus4/2	8A	your	.	58.223	newline	voice
.	.	4B	home-	.	.	.	.
2.EM	E:maj	.	.	.	58.739	.	voice
.	.	[8B	-town	B	.	.	.
.	.	2B]	_	.	.	.	.
=30	=30	=30	=30	=30	=30	=30	=30
4EM	E:sus4/2	2r	.	.	60.287	.	voice
2.EM	E:maj	.	.	.	60.803	.	voice
.	.	4r	.	.	.	.	.
.	.	8r	.	.	.	.	.
.	.	16B	this	.	.	.	.
.	.	16B	is	.	.	.	.
=31	=31	=31	=31	=31	=31	=31	=31
2AM	A:maj/5	2c#	your	.	62.351	.	voice
2AM	A:maj/3	8B	home-	.	63.383	.	voice
.	.	4.A	_	.	.	.	.
=32	=32	=32	=32	=32	=32	=32	=32
1DM	D:maj	8A	-town	B	64.415	.	voice
.	.	4.F#	_	.	.	.	.
.	.	2r	.	.	.	.	.
=33	=33	=33	=33	=33	=33	=33	=33
*>Letter>B	*>Letter>B	*>Letter>B	*>Letter>B	*>Letter>B	*>Letter>B	*>Letter>B	*>Letter>B
*>Label>Trans	*>Label>Trans	*>Label>Trans	*>Label>Trans	*>Label>Trans	*>Label>Trans	*>Label>Trans	*>Label>Trans
1AM	A:maj/5	1r	.	.	66.479	newline	synthesizer
=34	=34	=34	=34	=34	=34	=34	=34
1AM	A:maj/5	2r	.	.	68.558	.	synthesizer
.	.	4r	.	.	.	.	.
.	.	8r	.	.	.	.	.
.	.	8E	in	.	.	.	.
=35	=35	=35	=35	=35	=35	=35	=35
*>Letter>A	*>Letter>A	*>Letter>A	*>Letter>A	*>Letter>A	*>Letter>A	*>Letter>A	*>Letter>A
*>Label>Verse	*>Label>Verse	*>Label>Verse	*>Label>Verse	*>Label>Verse	*>Label>Verse	*>Label>Verse	*>Label>Verse
1AM	A:maj	8B	six-	.	70.636	newline	voice
.	.	4c#	-ty-	.	.	.	.
.	.	[8c#	-five	C	.	.	.
.	.	8c#]	_	.	.	.	.
.	.	8E	ten-	.	.	.	.
.	.	8E	-sion	.	.	.	.
.	.	8E	was	.	.	.	.
=36	=36	=36	=36	=36	=36	=36	=36
1AM	A:maj	8r	.	.	72.681	.	voice
.	.	8B	run-	.	.	.	.
.	.	8c#	-ning	.	.	.	.
.	.	[8c#	high	C	.	.	.
.	.	8c#]	_	.	.	.	.
.	.	4r	.	.	.	.	.
.	.	8c#	at	.	.	.	.
=37	=37	=37	=37	=37	=37	=37	=37
2DM	D:maj	2d	my	.	74.726	.	voice
2AM	A:maj	4.c#	high-	.	75.749	.	voice
.	.	[8B	-school	D	.	.	.
=38	=38	=38	=38	=38	=38	=38	=38
1EM	E:maj	2B]	_	.	76.772	.	voice
.	.	4r	.	.	.	.	.
.	.	8r	.	.	.	.	.
.	.	16E	there	.	.	.	.
.	.	16E	was	.	.	.	.
=39	=39	=39	=39	=39	=39	=39	=39
1EM	E:maj	8A	lots	.	78.817	newline	voice
.	.	4B	of	.	.	.	.
.	.	[8B	fights	C	.	.	.
.	.	8B]	_	.	.	.	.
.	.	8r	.	.	.	.	.
.	.	16r	.	.	.	.	.
.	.	16E	be	.	.	.	.
.	.	16E	tween	.	.	.	.
.	.	16E	the	.	.	.	.
=40	=40	=40	=40	=40	=40	=40	=40
1EM	E:maj	8A	black	.	80.853	.	voice
.	.	4B	and	.	.	.	.
.	.	[8B	white	C	.	.	.
.	.	4B]	_	.	.	.	.
.	.	8r	.	.	.	.	.
.	.	16B	there	.	.	.	.
.	.	16B	was	.	.	.	.
=41	=41	=41	=41	=41	=41	=41	=41
1AM	A:maj	8c#	no-	.	82.89	.	voice
.	.	4.c#	-thing	.	.	.	.
.	.	8B	you	.	.	.	.
.	.	4.A	_	.	.	.	.
=42	=42	=42	=42	=42	=42	=42	=42
1DM	D:maj	8A	could	.	84.926	.	voice
.	.	8F#	do	D	.	.	.
.	.	2r	.	.	.	.	.
.	.	8r	.	.	.	.	.
.	.	8E	Two	.	.	.	.
=43	=43	=43	=43	=43	=43	=43	=43
1AM	A:maj	8B	cars	.	86.963	newline	voice
.	.	8c#	at	.	.	.	.
.	.	8c#	a	.	.	.	.
.	.	[8c#	light	C	.	.	.
.	.	8c#]	_	.	.	.	.
.	.	4r	.	.	.	.	.
.	.	16E	on	.	.	.	.
.	.	16E	a	.	.	.	.
=44	=44	=44	=44	=44	=44	=44	=44
1AM	A:maj	8B	Sa-	.	89.003	.	voice
.	.	8c#	-tur-	.	.	.	.
.	.	8c#	-day	.	.	.	.
.	.	4c#	night	C	.	.	.
.	.	4r	.	.	.	.	.
.	.	16c#	in	.	.	.	.
.	.	16d	a	.	.	.	.
=45	=45	=45	=45	=45	=45	=45	=45
2DM	D:maj	8d	back	.	91.043	.	voice
.	.	4.d	seat	.	.	.	.
2AM	A:maj	8c#	there	.	92.063	.	voice
.	.	4c#	was	.	.	.	.
.	.	8B	a	.	.	.	.
=46	=46	=46	=46	=46	=46	=46	=46
1EM	E:maj	2B	gun	.	93.083	.	voice
.	.	2r	.	.	.	.	.
=47	=47	=47	=47	=47	=47	=47	=47
1EM	E:maj	8A	words	.	95.123	newline	voice
.	.	4B	were	.	.	.	.
.	.	[8B	passed	E	.	.	.
.	.	8B]	_	.	.	.	.
.	.	4r	.	.	.	.	.
.	.	16E	and	.	.	.	.
.	.	16E	a	.	.	.	.
=48	=48	=48	=48	=48	=48	=48	=48
1EM	E:maj	8A	shot-	.	97.148	.	voice
.	.	4B	-gun	.	.	.	.
.	.	[8B	blast	E	.	.	.
.	.	8B]	_	.	.	.	.
.	.	4r	.	.	.	.	.
.	.	16B	trou-	.	.	.	.
.	.	16B	-bled	.	.	.	.
=49	=49	=49	=49	=49	=49	=49	=49
1AM	A:maj	2c#	times	.	99.173	.	voice
.	.	8B	had	.	.	.	.
.	.	4.A	_	.	.	.	.
=50	=50	=50	=50	=50	=50	=50	=50
1DM	D:maj	8A	come	.	101.198	.	voice
.	.	4.F#	_	.	.	.	.
.	.	4r	.	.	.	.	.
.	.	8r	.	.	.	.	.
.	.	8AA	to	.	.	.	.
=51	=51	=51	=51	=51	=51	=51	=51
*>Letter>A	*>Letter>A	*>Letter>A	*>Letter>A	*>Letter>A	*>Letter>A	*>Letter>A	*>Letter>A
*>Label>Chorus	*>Label>Chorus	*>Label>Chorus	*>Label>Chorus	*>Label>Chorus	*>Label>Chorus	*>Label>Chorus	*>Label>Chorus
1AM	A:maj	8C#	my	.	103.224	newline	voice
.	.	4E	home-	.	.	.	.
.	.	[8E	-town	B	.	.	.
.	.	2E]	_	.	.	.	.
=52	=52	=52	=52	=52	=52	=52	=52
1AM	A:maj	2r	.	.	105.268	.	voice
.	.	4r	.	.	.	.	.
.	.	8r	.	.	.	.	.
.	.	8c#	to	.	.	.	.
=53	=53	=53	=53	=53	=53	=53	=53
2DM	D:maj	2d	my	.	107.312	.	voice
2AM	A:maj	8c#	home-	.	108.334	.	voice
.	.	4.B	_	.	.	.	.
=54	=54	=54	=54	=54	=54	=54	=54
1EM	E:maj	2B	-town	B	109.356	.	voice
.	.	4r	.	.	.	.	.
.	.	8r	.	.	.	.	.
.	.	8E	to	.	.	.	.
=55	=55	=55	=55	=55	=55	=55	=55
1EM	E:maj	8A	my	.	111.4	newline	voice
.	.	4B	home-	.	.	.	.
.	.	8B	-town	B	.	.	.
.	.	8A	_	.	.	.	.
.	.	8G#	_	.	.	.	.
.	.	4r	.	.	.	.	.
=56	=56	=56	=56	=56	=56	=56	=56
1EM	E:maj	2r	.	.	113.442	.	voice
.	.	4r	.	.	.	.	.
.	.	8r	.	.	.	.	.
.	.	8B	to	.	.	.	.
=57	=57	=57	=57	=57	=57	=57	=57
1AM	A:maj	2c#	my	.	115.483	.	voice
.	.	8B	home-	.	.	.	.
.	.	4.A	_	.	.	.	.
=58	=58	=58	=58	=58	=58	=58	=58
1DM	D:maj	8A	-town	B	117.525	.	voice
.	.	4.F#	_	.	.	.	.
.	.	2r	.	.	.	.	.
=59	=59	=59	=59	=59	=59	=59	=59
*>Letter>B	*>Letter>B	*>Letter>B	*>Letter>B	*>Letter>B	*>Letter>B	*>Letter>B	*>Letter>B
*>Label>Trans	*>Label>Trans	*>Label>Trans	*>Label>Trans	*>Label>Trans	*>Label>Trans	*>Label>Trans	*>Label>Trans
1AM	A:maj	1r	.	.	119.567	newline	synthesizer
=60	=60	=60	=60	=60	=60	=60	=60
1AM	A:maj	2r	.	.	121.615	.	synthesizer
.	.	4r	.	.	.	.	.
.	.	8r	.	.	.	.	.
.	.	8E	Now	.	.	.	.
=61	=61	=61	=61	=61	=61	=61	=61
*>Letter>C	*>Letter>C	*>Letter>C	*>Letter>C	*>Letter>C	*>Letter>C	*>Letter>C	*>Letter>C
*>Label>Bridge	*>Label>Bridge	*>Label>Bridge	*>Label>Bridge	*>Label>Bridge	*>Label>Bridge	*>Label>Bridge	*>Label>Bridge
1F#m	F#:min	4B	Main	.	123.663	newline	voice
.	.	4A	Street's	.	.	.	.
.	.	4A	white	.	.	.	.
.	.	4A	washed	.	.	.	.
=62	=62	=62	=62	=62	=62	=62	=62
1F#m	F#:min	8B	win-	.	125.683	.	voice
.	.	8A	-dows	.	.	.	.
.	.	2r	.	.	.	.	.
.	.	8r	.	.	.	.	.
.	.	8E	and	.	.	.	.
=63	=63	=63	=63	=63	=63	=63	=63
1AM	A:maj	8B	va-	.	127.703	.	voice
.	.	4c#	-cant	.	.	.	.
.	.	8c#	stores	F	.	.	.
.	.	8B	_	.	.	.	.
.	.	[8A	_	.	.	.	.
.	.	4A]	_	.	.	.	.
=64	=64	=64	=64	=64	=64	=64	=64
1AM	A:maj	2r	.	.	129.723	.	voice
.	.	4r	.	.	.	.	.
.	.	8r	.	.	.	.	.
.	.	8A	seems	.	.	.	.
=65	=65	=65	=65	=65	=65	=65	=65
1F#m	F#:min	8B	like	.	131.742	newline	voice
.	.	4A	there	.	.	.	.
.	.	[8A	ain't	.	.	.	.
.	.	8A]	_	.	.	.	.
.	.	4A	no-	.	.	.	.
.	.	[8B	-bo-	.	.	.	.
=66	=66	=66	=66	=66	=66	=66	=66
1F#m	F#:min	8B]	_	.	133.788	.	voice
.	.	8A	-dy	.	.	.	.
.	.	4r	.	.	.	.	.
.	.	8A	wants	.	.	.	.
.	.	8A	to	.	.	.	.
.	.	8A	come	.	.	.	.
.	.	[8B	down	.	.	.	.
=67	=67	=67	=67	=67	=67	=67	=67
1AM	A:maj	8B]	_	.	135.833	.	voice
.	.	8c#	here	.	.	.	.
.	.	8c#	no	.	.	.	.
.	.	[8c#	more	F	.	.	.
.	.	4c#]	_	.	.	.	.
.	.	4r	.	.	.	.	.
=68	=68	=68	=68	=68	=68	=68	=68
1AM	A:maj	2r	.	.	137.878	.	voice
.	.	4r	.	.	.	.	.
.	.	8r	.	.	.	.	.
.	.	8A	They're	.	.	.	.
=69	=69	=69	=69	=69	=69	=69	=69
1DM	D:maj	8B	clos-	.	139.923	newline	voice
.	.	4A	-ing	.	.	.	.
.	.	[8A	down	.	.	.	.
.	.	8A]	_	.	.	.	.
.	.	4r	.	.	.	.	.
.	.	8A	the	.	.	.	.
=70	=70	=70	=70	=70	=70	=70	=70
1DM	D:maj	8B	text-	.	141.962	.	voice
.	.	4A	-ile	.	.	.	.
.	.	[8A	mill	.	.	.	.
.	.	8A]	_	.	.	.	.
.	.	4r	.	.	.	.	.
.	.	8B	a	.	.	.	.
=71	=71	=71	=71	=71	=71	=71	=71
1AM	A:maj	16B	cross	.	144.002	.	voice
.	.	16B	the	.	.	.	.
.	.	[8c#	rail-	.	.	.	.
.	.	8c#]	_	.	.	.	.
.	.	8c#	-road	.	.	.	.
.	.	16c#	tracks	G	.	.	.
.	.	16B	_	.	.	.	.
.	.	[8A	_	.	.	.	.
.	.	4A]	_	.	.	.	.
=72	=72	=72	=72	=72	=72	=72	=72
1AM	A:maj	2r	.	.	146.041	.	voice
.	.	4r	.	.	.	.	.
.	.	8A	Fore-	.	.	.	.
.	.	8A	-man	.	.	.	.
=73	=73	=73	=73	=73	=73	=73	=73
1DM	D:maj	8B	says	.	148.08	newline	voice
.	.	4A	\\\"These	.	.	.	.
.	.	[8A	jobs	.	.	.	.
.	.	4.A]	_	.	.	.	.
.	.	8A	are	.	.	.	.
=74	=74	=74	=74	=74	=74	=74	=74
1DM	D:maj	8B	go-	.	150.133	.	voice
.	.	4A	-ing	.	.	.	.
.	.	[8A	boys	.	.	.	.
.	.	8A]	_	.	.	.	.
.	.	4r	.	.	.	.	.
.	.	8B	and	.	.	.	.
=75	=75	=75	=75	=75	=75	=75	=75
1AM	A:maj	8c#	they	.	152.186	.	voice
.	.	4.c#	ain't	.	.	.	.
.	.	8d	com-	.	.	.	.
.	.	8c#	-ing	.	.	.	.
.	.	4B	_	.	.	.	.
=76	=76	=76	=76	=76	=76	=76	=76
1EM	E:maj	2B	back	G	154.24	.	voice
.	.	4r	.	.	.	.	.
.	.	8r	.	.	.	.	.
.	.	8E	to	.	.	.	.
=77	=77	=77	=77	=77	=77	=77	=77
*>Letter>A	*>Letter>A	*>Letter>A	*>Letter>A	*>Letter>A	*>Letter>A	*>Letter>A	*>Letter>A
*>Label>Chorus	*>Label>Chorus	*>Label>Chorus	*>Label>Chorus	*>Label>Chorus	*>Label>Chorus	*>Label>Chorus	*>Label>Chorus
1AM	A:maj	8B	your	.	156.293	newline	voice
.	.	4c#	home-	.	.	.	.
.	.	[8c#	-town	B	.	.	.
.	.	2c#]	_	.	.	.	.
=78	=78	=78	=78	=78	=78	=78	=78
1AM	A:maj	2r	.	.	158.324	.	voice
.	.	4r	.	.	.	.	.
.	.	8r	.	.	.	.	.
.	.	8c#	to	.	.	.	.
=79	=79	=79	=79	=79	=79	=79	=79
2DM	D:maj	2d	your	.	160.355	.	voice
2AM	A:maj	8c#	home-	.	161.371	.	voice
.	.	4.B	_	.	.	.	.
=80	=80	=80	=80	=80	=80	=80	=80
1EM	E:maj	2B	-town	B	162.386	.	voice
.	.	4r	.	.	.	.	.
.	.	8r	.	.	.	.	.
.	.	8E	to	.	.	.	.
=81	=81	=81	=81	=81	=81	=81	=81
1EM	E:maj	8A	your	.	164.418	newline	voice
.	.	4B	home-	.	.	.	.
.	.	[8B	-town	B	.	.	.
.	.	8B]	_	.	.	.	.
.	.	8A	_	.	.	.	.
.	.	8G#	_	.	.	.	.
.	.	8r	.	.	.	.	.
=82	=82	=82	=82	=82	=82	=82	=82
1EM	E:maj	2r	.	.	166.438	.	voice
.	.	4r	.	.	.	.	.
.	.	8r	.	.	.	.	.
.	.	8B	to	.	.	.	.
=83	=83	=83	=83	=83	=83	=83	=83
1AM	A:maj	2c#	your	.	168.459	.	voice
.	.	8B	home-	.	.	.	.
.	.	4.A	_	.	.	.	.
=84	=84	=84	=84	=84	=84	=84	=84
1DM	D:maj	8A	-town	B	170.48	.	voice
.	.	4.F#	_	.	.	.	.
.	.	2r	.	.	.	.	.
=85	=85	=85	=85	=85	=85	=85	=85
*>Letter>B	*>Letter>B	*>Letter>B	*>Letter>B	*>Letter>B	*>Letter>B	*>Letter>B	*>Letter>B
*>Label>Trans	*>Label>Trans	*>Label>Trans	*>Label>Trans	*>Label>Trans	*>Label>Trans	*>Label>Trans	*>Label>Trans
1AM	A:maj	1r	.	.	172.501	newline	synthesizer
=86	=86	=86	=86	=86	=86	=86	=86
1AM	A:maj	2r	.	.	174.52	.	synthesizer
.	.	4r	.	.	.	.	.
.	.	8r	.	.	.	.	.
.	.	8E	Last	.	.	.	.
=87	=87	=87	=87	=87	=87	=87	=87
*>Letter>A	*>Letter>A	*>Letter>A	*>Letter>A	*>Letter>A	*>Letter>A	*>Letter>A	*>Letter>A
*>Label>Verse	*>Label>Verse	*>Label>Verse	*>Label>Verse	*>Label>Verse	*>Label>Verse	*>Label>Verse	*>Label>Verse
1AM	A:maj	8B	night	.	176.54	newline	voice
.	.	8c#	me	.	.	.	.
.	.	8c#	and	.	.	.	.
.	.	[8c#	Kate	.	.	.	.
.	.	8c#]	_	.	.	.	.
.	.	4r	.	.	.	.	.
.	.	8E	we	.	.	.	.
=88	=88	=88	=88	=88	=88	=88	=88
1AM	A:maj	8B	laid	.	178.572	.	voice
.	.	4c#	in	.	.	.	.
.	.	[8c#	bed	.	.	.	.
.	.	8c#]	_	.	.	.	.
.	.	4r	.	.	.	.	.
.	.	[8d	talk-	.	.	.	.
=89	=89	=89	=89	=89	=89	=89	=89
2DM	D:maj	8d]	_	.	180.605	.	voice
.	.	8d	-in'	.	.	.	.
.	.	4d	'bout	.	.	.	.
2AM	A:maj	8c#	get-	.	181.621	.	voice
.	.	8c#	-ting	.	.	.	.
.	.	4B	_	.	.	.	.
=90	=90	=90	=90	=90	=90	=90	=90
1EM	E:maj	2B	out	B	182.637	.	voice
.	.	2r	.	.	.	.	.
=91	=91	=91	=91	=91	=91	=91	=91
1EM	E:maj	8A	pack-	.	184.67	newline	voice
.	.	4B	-ing	.	.	.	.
.	.	[8B	up	.	.	.	.
.	.	8B]	_	.	.	.	.
.	.	4r	.	.	.	.	.
.	.	8r	.	.	.	.	.
=92	=92	=92	=92	=92	=92	=92	=92
1EM	E:maj	8A	our	.	186.705	.	voice
.	.	[4B	bags	.	.	.	.
.	.	8B]	_	.	.	.	.
.	.	8B	may	.	.	.	.
.	.	4.B	be	.	.	.	.
=93	=93	=93	=93	=93	=93	=93	=93
1AM	A:maj	2c#	head-	.	188.74	.	voice
.	.	8B	-ing	.	.	.	.
.	.	4.A	_	.	.	.	.
=94	=94	=94	=94	=94	=94	=94	=94
1DM	D:maj	8A	south	B	190.775	.	voice
.	.	4.F#	_	.	.	.	.
.	.	4r	.	.	.	.	.
.	.	8r	.	.	.	.	.
.	.	8E	I'm	.	.	.	.
=95	=95	=95	=95	=95	=95	=95	=95
1AM	A:maj	8B	thir-	.	192.81	newline	voice
.	.	4c#	-ty-	.	.	.	.
.	.	[8c#	-five	.	.	.	.
.	.	8c#]	_	.	.	.	.
.	.	4r	.	.	.	.	.
.	.	8E	we	.	.	.	.
=96	=96	=96	=96	=96	=96	=96	=96
1AM	A:maj	8B	got	.	194.832	.	voice
.	.	4c#	a	.	.	.	.
.	.	[8c#	boy	.	.	.	.
.	.	8c#]	_	.	.	.	.
.	.	4r	.	.	.	.	.
.	.	8c#	of	.	.	.	.
=97	=97	=97	=97	=97	=97	=97	=97
2DM	D:maj	2d	our	.	196.855	.	voice
2AM	A:maj	8c#	own	.	197.866	.	voice
.	.	4.B	_	.	.	.	.
=98	=98	=98	=98	=98	=98	=98	=98
1EM	E:maj	4B	now	B	198.877	.	voice
.	.	4r	.	.	.	.	.
.	.	8r	.	.	.	.	.
.	.	8E	Last	.	.	.	.
.	.	8E	night	.	.	.	.
.	.	8E	I	.	.	.	.
=99	=99	=99	=99	=99	=99	=99	=99
1EM	E:maj	8A	sat	.	200.899	newline	voice
.	.	4B	him	.	.	.	.
.	.	[8B	_	.	.	.	.
.	.	8B]	_	.	.	.	.
.	.	4r	.	.	.	.	.
.	.	8E	be-	.	.	.	.
=100	=100	=100	=100	=100	=100	=100	=100
1EM	E:maj	8A	-hind	.	202.931	.	voice
.	.	4B	the	.	.	.	.
.	.	[8B	wheel	.	.	.	.
.	.	8B]	_	.	.	.	.
.	.	8B	and	.	.	.	.
.	.	4B	said	.	.	.	.
=101	=101	=101	=101	=101	=101	=101	=101
1AM	A:maj	4c#	\\\"Son	.	204.962	.	voice
.	.	8c#	take	.	.	.	.
.	.	8c#	a	.	.	.	.
.	.	8B	good	.	.	.	.
.	.	4A	look	.	.	.	.
.	.	8A	a-	.	.	.	.
=102	=102	=102	=102	=102	=102	=102	=102
1DM	D:maj	8A	-round	B	206.994	.	voice
.	.	4.F#	_	.	.	.	.
.	.	2r	.	.	.	.	.
=103	=103	=103	=103	=103	=103	=103	=103
1DM	D:maj	2r	.	.	209.026	.	voice
.	.	4r	.	.	.	.	.
.	.	8r	.	.	.	.	.
.	.	16AA	This	.	.	.	.
.	.	16AA	is	.	.	.	.
=104	=104	=104	=104	=104	=104	=104	=104
*>Letter>A	*>Letter>A	*>Letter>A	*>Letter>A	*>Letter>A	*>Letter>A	*>Letter>A	*>Letter>A
*>Label>Instrumental	*>Label>Instrumental	*>Label>Instrumental	*>Label>Instrumental	*>Label>Instrumental	*>Label>Instrumental	*>Label>Instrumental	*>Label>Instrumental
1AM	A:maj	8C#	your	.	211.058	newline	synthesizer
.	.	4E	home-	.	.	.	.
.	.	[8E	-town	B	.	.	.
.	.	2E]	_	.	.	.	.
=105	=105	=105	=105	=105	=105	=105	=105
1AM	A:maj	1r	.	.	213.109	.	synthesizer
=106	=106	=106	=106	=106	=106	=106	=106
2DM	D:maj	1r	.	.	215.161	.	synthesizer
2AM	A:maj	.	.	.	216.187	.	synthesizer
=107	=107	=107	=107	=107	=107	=107	=107
1EM	E:maj	1r	.	.	217.213	.	synthesizer
=108	=108	=108	=108	=108	=108	=108	=108
1EM	E:maj	1r	.	.	219.265	newline	synthesizer
=109	=109	=109	=109	=109	=109	=109	=109
1EM	E:maj	1r	.	.	221.262	.	synthesizer
=110	=110	=110	=110	=110	=110	=110	=110
1AM	A:maj	1r	.	.	223.258	.	synthesizer
=111	=111	=111	=111	=111	=111	=111	=111
1DM	D:maj	1r	.	.	225.255	.	synthesizer
=112	=112	=112	=112	=112	=112	=112	=112
*>Label>>Fadeout	*>Label>>Fadeout	*>Label>>Fadeout	*>Label>>Fadeout	*>Label>>Fadeout	*>Label>>Fadeout	*>Label>>Fadeout	*>Label>>Fadeout
1AM	A:maj	1r	.	.	227.252	newline	synthesizer
=113	=113	=113	=113	=113	=113	=113	=113
1AM	A:maj	1r	.	.	229.255	.	synthesizer
=114	=114	=114	=114	=114	=114	=114	=114
2DM	D:maj	1r	.	.	231.258	.	synthesizer
2AM	A:maj	.	.	.	232.26	.	synthesizer
=115	=115	=115	=115	=115	=115	=115	=115
1EM	E:maj	1r	.	.	233.261	.	synthesizer
=116	=116	=116	=116	=116	=116	=116	=116
1EM	E:maj	1r	.	.	235.264	newline	synthesizer
=117	=117	=117	=117	=117	=117	=117	=117
1EM	E:maj	1r	.	.	237.267	.	synthesizer
=118	=118	=118	=118	=118	=118	=118	=118
1AM	A:maj	1r	.	.	239.269	.	synthesizer
=119	=119	=119	=119	=119	=119	=119	=119
1DM	D:maj	1r	.	.	241.272	.	synthesizer
=120	=120	=120	=120	=120	=120	=120	=120
1AM	A:maj	1r	.	.	243.274	newline	synthesizer
=121	=121	=121	=121	=121	=121	=121	=121
1AM	A:maj	1r	.	.	245.274	.	synthesizer
=122	=122	=122	=122	=122	=122	=122	=122
2DM	D:maj	1r	.	.	247.275	.	synthesizer
2AM	A:maj	.	.	.	248.275	.	synthesizer
=123	=123	=123	=123	=123	=123	=123	=123
1EM	E:maj	1r	.	.	249.275	.	synthesizer
=124	=124	=124	=124	=124	=124	=124	=124
1EM	E:maj	1r	.	.	251.275	newline	synthesizer
=125	=125	=125	=125	=125	=125	=125	=125
1EM	E:maj	1r	.	.	253.288	.	synthesizer
=126	=126	=126	=126	=126	=126	=126	=126
1AM	A:maj	1r	.	.	255.301	.	synthesizer
=127	=127	=127	=127	=127	=127	=127	=127
1DM	D:maj	1r	.	.	257.314	.	synthesizer
=128	=128	=128	=128	=128	=128	=128	=128
1AM	A:maj	1r	.	.	259.327	newline	synthesizer
=129	=129	=129	=129	=129	=129	=129	=129
1AM	A:maj	1r	.	.	260.781	.	synthesizer
=130	=130	=130	=130	=130	=130	=130	=130
2DM	D:maj	1r	.	.	262.235	.	synthesizer
2AM	A:maj	.	.	.	262.962	.	synthesizer
=131	=131	=131	=131	=131	=131	=131	=131
1EM	E:maj	1r	.	.	263.689	.	synthesizer
=132	=132	=132	=132	=132	=132	=132	=132
1EM	E:maj	1r	.	.	265.143	.	synthesizer
=133	=133	=133	=133	=133	=133	=133	=133
1EM	E:maj	1r	.	.	266.597	.	synthesizer
1r;	1r	r;	.	.	268.051	.	r
1r;	1r	r;	.	.	274.233	.	r
*-	*-	*-	*-	*-	*-	*-	*-
!!!BillboardChartDate: 1985/12/14
!!!BillboardPeak: 6
!!!BillboardWeeksOnChart: 15
!!!COC: Bruce Springsteen
!!!ENC: Nathaniel Condit-Schultz
!!!EST: Awating manual error checking and editing.
!!!OTL: My Hometown
!!!RDF**chordsym: original McGill chord annotation + (implied pitch class set, with bass pitch in first position)
!!!RDF**harmony: **recip + pitch class of root + harmonic quality
!!!RDF**leadinstrument: original McGill primary instrumentation annotation
!!!RDF**phrase: newline = linebreak in original McGill transcription
!!!RDF**timestamp: McGill audio timestamp in seconds
!!!RDT: 2017/01/12/
!!!SampleActualRank: 44
!!!SampleID#: 1066
!!!SampleTargetRank: 44
!!!MBID: cf0afe0f-7fd7-4cb9-87a1-82a960739c2b
